images/begin-nightly.svg

<?xml version="1.0" encoding="UTF-8" standalone="no"?>
<svg
   viewBox="0 0 60.000001 60.000001"
   version="1.1"
   id="svg3"
   sodipodi:docname="begin-nightly.svg"
   inkscape:version="1.3 (0e150ed6c4, 2023-07-21)"
   width="60"
   height="60"
   inkscape:export-filename="begin-nightly.svg"
   inkscape:export-xdpi="96"
   inkscape:export-ydpi="96"
   xmlns:inkscape="http://www.inkscape.org/namespaces/inkscape"
   xmlns:sodipodi="http://sodipodi.sourceforge.net/DTD/sodipodi-0.dtd"
   xmlns="http://www.w3.org/2000/svg"
   xmlns:svg="http://www.w3.org/2000/svg">
  <defs
     id="defs3" />
  <sodipodi:namedview
     id="namedview3"
     pagecolor="#ffffff"
     bordercolor="#666666"
     borderopacity="1.0"
     inkscape:showpageshadow="2"
     inkscape:pageopacity="0.0"
     inkscape:pagecheckerboard="0"
     inkscape:deskcolor="#d1d1d1"
     inkscape:zoom="14.383607"
     inkscape:cx="27.28801"
     inkscape:cy="28.817529"
     inkscape:window-width="2560"
     inkscape:window-height="1440"
     inkscape:window-x="0"
     inkscape:window-y="0"
     inkscape:window-maximized="1"
     inkscape:current-layer="svg3" />
  <g
     id="g1"
     transform="translate(0.27178939,0.66732041)">
    <path
       d="m 46.825,32.586 c -2.26,2.267 -5.217,3.705 -8.393,4.081 0.033,-3.08 -0.838,-6.1 -2.509,-8.685 0.845,0.125 1.709,0.052 2.521,-0.211 0.813,-0.264 1.552,-0.712 2.164,-1.31 2.208,-2.159 2.179,-5.76 -0.005,-7.944 l -3.873,-3.873 6.169,-6.172 3.925,3.923 c 4.183,4.186 5.228,10.319 3.132,15.477 -0.717,1.765 -1.781,3.369 -3.131,4.714 z"
       fill="#3414FC"
       style="fill:#141414;fill-opacity:1"
       id="path1" />
    <path
       d="m 22.711,44.358 -6.17,6.172 -3.922,-3.925 C 8.435,42.421 7.391,36.287 9.485,31.131 c 0.963,-2.362 2.539,-4.422 4.566,-5.967 2.026,-1.547 4.428,-2.524 6.96,-2.828 -0.036,3.077 0.836,6.097 2.507,8.684 -0.844,-0.124 -1.707,-0.053 -2.52,0.211 -0.812,0.263 -1.553,0.713 -2.165,1.31 -2.208,2.158 -2.179,5.76 0.005,7.944 z"
       fill="#3414FC"
       style="fill:#141414;fill-opacity:1"
       id="path2" />
    <path
       d="m 32.806,46.605 -3.923,3.925 -6.172,-6.172 3.924,-3.924 c 1.041,-1.041 1.626,-2.451 1.626,-3.923 0,-1.472 -0.585,-2.883 -1.626,-3.925 -2.678,-2.677 -4.181,-6.309 -4.181,-10.095 0,-3.786 1.503,-7.417 4.181,-10.096 l 3.924,-3.923 6.171,6.172 -3.924,3.924 c -1.04,1.041 -1.624,2.453 -1.624,3.923 0,1.472 0.584,2.883 1.624,3.924 2.678,2.677 4.183,6.308 4.183,10.096 0,3.787 -1.505,7.417 -4.183,10.094 z"
       fill="#3414FC"
       style="fill:#141414;fill-opacity:1"
       id="path3" />
  </g>
</svg>

<?xml version="1.0" encoding="utf-8"?>
<svg viewBox="0 0 60 60" xmlns="http://www.w3.org/2000/svg">
  <path d="M 46.825 32.586 C 44.565 34.853 41.608 36.291 38.432 36.667 C 38.465 33.587 37.594 30.567 35.923 27.982 C 36.768 28.107 37.632 28.034 38.444 27.771 C 39.257 27.507 39.996 27.059 40.608 26.461 C 42.816 24.302 42.787 20.701 40.603 18.517 L 36.73 14.644 L 42.899 8.472 L 46.824 12.395 C 51.007 16.581 52.052 22.714 49.956 27.872 C 49.239 29.637 48.175 31.241 46.825 32.586 Z" fill="#3414FC" style=""/>
  <path d="M 22.711 44.358 L 16.541 50.53 L 12.619 46.605 C 8.435 42.421 7.391 36.287 9.485 31.131 C 10.448 28.769 12.024 26.709 14.051 25.164 C 16.077 23.617 18.479 22.64 21.011 22.336 C 20.975 25.413 21.847 28.433 23.518 31.02 C 22.674 30.896 21.811 30.967 20.998 31.231 C 20.186 31.494 19.445 31.944 18.833 32.541 C 16.625 34.699 16.654 38.301 18.838 40.485 L 22.711 44.358 Z" fill="#3414FC" style=""/>
  <path d="M 32.806 46.605 L 28.883 50.53 L 22.711 44.358 L 26.635 40.434 C 27.676 39.393 28.261 37.983 28.261 36.511 C 28.261 35.039 27.676 33.628 26.635 32.586 C 23.957 29.909 22.454 26.277 22.454 22.491 C 22.454 18.705 23.957 15.074 26.635 12.395 L 30.559 8.472 L 36.73 14.644 L 32.806 18.568 C 31.766 19.609 31.182 21.021 31.182 22.491 C 31.182 23.963 31.766 25.374 32.806 26.415 C 35.484 29.092 36.989 32.723 36.989 36.511 C 36.989 40.298 35.484 43.928 32.806 46.605 Z" fill="#3414FC" style=""/>
</svg>
